X: 39947
T: Thorn Tree, The
R: slip jig
M: 9/8
K: Eminor
|:E3 EDE G3|A3 AGA BGE|B2c AGF G2F|E3 GEA DBA|
B2E EDE G3|A3 AGA BGE|B2c AGF G2A|BdB AFD E3:|
|:B2e ede g3|afd f2e dBA|B2e ede g3|a3 fed ef/g/a|
b3 agf g2f|e3 gee dgf|e3 edB BAB|G2B AFD E3:|

